X: 421
T: MISS MARY MACDONALD OF CLANRANALD
C: R. MACKINTOSH
R: Reel
B: Glen Collection p.42 #1
Z: 2011 John Chambers <jc:trillian.mit.edu>
M: C|
L: 1/8
V: 1 clef=treble middle=B
V: 2 clef=bass middle=d
%%score {1 | 2}
K: Dm
%
V: 1
A | d/d/d Ad FDD^c | dfA=c ECC^c | ~d2Ad FAdf | egAa fdd :|
e |\
fdad Aafd | ecgc Gceg | fdad Aafd | egAa f(dde) |
fdad Aafd | ecgc Gceg | fdge afbg | afge fd-d |]
%
V: 2
z |\
d2[a2f2] A2[a2f2] | d2[a2f2] c2[g2e2] |\
d2[a2f2] A2[a2f2] | c2^c2 d2[afd] :|
z |\
d2[d'2a2] f2[d'2a2] | c2[c'2g2] e2[c'2g2] |\
d2[d'2a2] f2[d'2a2] | c2^c2 d2[a2f2d2] |
d2[d'2a2] f2[d'2a2] | c2[c'2g2] e2[c'2g2] |\
d2[b2g2] [a2f2][g2e2] | A2[^c'2a2] [d'2d2] [afd] |]
